static/img/home-offerings-training.svg

<svg height="100" viewBox="0 0 124 100" width="124" xmlns="http://www.w3.org/2000/svg" xmlns:xlink="http://www.w3.org/1999/xlink"><linearGradient id="a" x1="100%" x2="0%" y1="50%" y2="50%"><stop offset="0" stop-color="#e77e2a"/><stop offset="1" stop-color="#e05528"/></linearGradient><path d="m120.683845 35.1575095-53.4395082 22.1614729c-3.4237635 1.3523438-7.064692 1.3523438-10.4884555 0l-38.8536305-16.112771c-1.6592739 2.9786478-2.1347361 6.0026081-2.309111 9.9830794 1.8014863 1.4578135 3.006998 4.1114611 3.006998 7.1440152 0 3.112502-1.2704179 5.8244829-3.1513417 7.2554735l3.1381667 32.056271c.1220624 1.246355-.6006246 2.3549495-1.536824 2.3549495h-9.29999381c-.93542438 0-1.6588864-1.1075528-1.53682398-2.3552099l3.13816667-32.056271c-1.88092375-1.4307302-3.15134166-4.1427111-3.15134166-7.2552131 0-3.1338563 1.28766164-5.8622435 3.19009163-7.2854215.18348113-4.6747427.76996195-8.6539119 2.35444845-12.3950602l-8.42850692-3.4953148c-4.43222206-1.7710949-4.41090958-10.2190172 0-11.9817787l53.43950832-22.16147293c3.4237635-1.35234383 7.0646921-1.35234383 10.4884556 0l53.4395079 22.16147293c4.432416 1.7710949 4.411104 10.2190171.000194 11.9817787zm-51.6112844 30.1242385-.0401062.0166667-.0401063.0158854c-4.564914 1.8030695-9.4193703 1.8030695-13.9842844 0l-.0401063-.0158854-.0401062-.0166667-29.2395681-12.1276121-2.4381484 21.8458477c0 9.2046935 17.3489448 16.6666776 38.7499743 16.6666776 21.4010296 0 38.749974-7.4619841 38.749974-16.6666776l-2.4379543-21.8458477z" fill="url(#a)" transform=""/></svg>

<?xml version="1.0" encoding="UTF-8"?>
<svg width="124px" height="100px" viewBox="0 0 124 100" version="1.1" xmlns="http://www.w3.org/2000/svg" xmlns:xlink="http://www.w3.org/1999/xlink">
    <!-- Generator: Sketch 50.2 (55047) - http://www.bohemiancoding.com/sketch -->
    <title>graduation-cap</title>
    <desc>Created with Sketch.</desc>
    <defs>
        <linearGradient x1="100%" y1="50%" x2="-2.22044605e-14%" y2="50%" id="linearGradient-1">
            <stop stop-color="#E77E2A" offset="0%"></stop>
            <stop stop-color="#E05528" offset="100%"></stop>
        </linearGradient>
    </defs>
    <g id="Page-1" stroke="none" stroke-width="1" fill="none" fill-rule="evenodd">
        <g id="homepage" transform="translate(-346.000000, -1718.000000)" fill="url(#linearGradient-1)" fill-rule="nonzero">
            <g id="graduation-cap" transform="translate(346.000000, 1718.000000)">
                <path d="M120.683845,35.1575095 L67.2443368,57.3189824 C63.8205733,58.6713262 60.1796448,58.6713262 56.7558813,57.3189824 L17.9022508,41.2062114 C16.2429769,44.1848592 15.7675147,47.2088195 15.5931398,51.1892908 C17.3946261,52.6471043 18.6001378,55.3007519 18.6001378,58.333306 C18.6001378,61.445808 17.3297199,64.1577889 15.4487961,65.5887795 L18.5869628,97.6450505 C18.7090252,98.8914055 17.9863382,100 17.0501388,100 L7.75014499,100 C6.81472061,100 6.09125859,98.8924472 6.21332101,97.6447901 L9.35148768,65.5885191 C7.47056393,64.1577889 6.20014602,61.445808 6.20014602,58.333306 C6.20014602,55.1994497 7.48780766,52.4710625 9.39023765,51.0478845 C9.57371878,46.3731418 10.1601996,42.3939726 11.7446861,38.6528243 L3.31617918,35.1575095 C-1.11604288,33.3864146 -1.0947304,24.9384923 3.31617918,23.1757308 L56.7556875,1.01425787 C60.179451,-0.338085955 63.8203796,-0.338085955 67.2441431,1.01425787 L120.683651,23.1757308 C125.116067,24.9468257 125.094755,33.3947479 120.683845,35.1575095 Z M69.0725606,65.281748 L69.0324544,65.2984147 L68.9923481,65.3143001 C64.4274341,67.1173696 59.5729778,67.1173696 55.0080637,65.3143001 L54.9679574,65.2984147 L54.9278512,65.281748 L25.6882831,53.1541359 L23.2501347,74.9999836 C23.2501347,84.2046771 40.5990795,91.6666612 62.000109,91.6666612 C83.4011386,91.6666612 100.750083,84.2046771 100.750083,74.9999836 L98.3121287,53.1541359 L69.0725606,65.281748 Z" id="Shape"></path>
            </g>
        </g>
    </g>
</svg>
